img/icons/user/infoPanel/copyIco.svg

<svg width="20" height="20" viewBox="0 0 20 20" fill="none" xmlns="http://www.w3.org/2000/svg">
<path d="M3.5 7.5C3.5 6.94772 3.05228 6.5 2.5 6.5C1.94772 6.5 1.5 6.94772 1.5 7.5H3.5ZM12.5001 18.5C13.0524 18.5 13.5001 18.0523 13.5001 17.5C13.5001 16.9477 13.0524 16.5 12.5001 16.5V18.5ZM2.59083 17.045L1.69982 17.499H1.69982L2.59083 17.045ZM2.95492 17.4092L3.40891 16.5182H3.40891L2.95492 17.4092ZM14.8335 14.1667V13.1667V14.1667ZM8.50016 14.1667V15.1667V14.1667ZM17.5002 11.5H18.5002H17.5002ZM17.3185 13.2566L18.2095 13.7106L17.3185 13.2566ZM16.5898 13.985L17.0438 14.876L16.5898 13.985ZM16.5898 2.68166L17.0438 1.79065V1.79065L16.5898 2.68166ZM17.5002 5.16669L16.5002 5.16669V5.16669H17.5002ZM17.3185 3.41003L18.2095 2.95604V2.95604L17.3185 3.41003ZM6.01499 3.41003L5.12398 2.95604L5.12398 2.95604L6.01499 3.41003ZM6.74316 2.68166L7.19715 3.57266L6.74316 2.68166ZM6.01499 13.2566L6.906 12.8026H6.906L6.01499 13.2566ZM6.74316 13.985L7.19715 13.094L6.74316 13.985ZM10.6667 10.8333C10.6667 11.3856 11.1144 11.8333 11.6667 11.8333C12.219 11.8333 12.6667 11.3856 12.6667 10.8333H10.6667ZM12.6667 5.83333C12.6667 5.28105 12.219 4.83333 11.6667 4.83333C11.1144 4.83333 10.6667 5.28105 10.6667 5.83333H12.6667ZM9.16667 7.33333C8.61438 7.33333 8.16667 7.78105 8.16667 8.33333C8.16667 8.88562 8.61438 9.33333 9.16667 9.33333V7.33333ZM14.1667 9.33333C14.719 9.33333 15.1667 8.88562 15.1667 8.33333C15.1667 7.78105 14.719 7.33333 14.1667 7.33333V9.33333ZM1.5 7.5V16.1667H3.5V7.5H1.5ZM3.83341 18.5H12.5001V16.5H3.83341V18.5ZM1.5 16.1667C1.5 16.3835 1.49922 16.6063 1.51467 16.7954C1.53108 16.9962 1.5706 17.2454 1.69982 17.499L3.48183 16.591C3.52022 16.6664 3.51433 16.7097 3.50803 16.6326C3.50493 16.5946 3.50257 16.5409 3.5013 16.46C3.50003 16.3792 3.5 16.2856 3.5 16.1667H1.5ZM3.83341 16.5C3.71446 16.5 3.62089 16.5 3.54005 16.4987C3.45918 16.4974 3.40541 16.4951 3.36743 16.492C3.29019 16.4857 3.33353 16.4797 3.40891 16.5182L2.50092 18.3002C2.75457 18.4294 3.0038 18.4689 3.20457 18.4853C3.39373 18.5008 3.61654 18.5 3.83341 18.5V16.5ZM1.69982 17.499C1.87551 17.8438 2.15581 18.1243 2.50092 18.3002L3.40891 16.5182C3.44042 16.5342 3.46593 16.5598 3.48183 16.591L1.69982 17.499ZM6.83333 11.5V5.16668H4.83333V11.5H6.83333ZM8.50016 3.5H14.8335V1.5H8.50016V3.5ZM14.8335 13.1667H8.50016V15.1667H14.8335V13.1667ZM16.5002 11.5C16.5002 11.9832 16.4994 12.2855 16.4808 12.5132C16.4631 12.7293 16.4345 12.7889 16.4275 12.8026L18.2095 13.7106C18.3842 13.3679 18.4464 13.0158 18.4741 12.6761C18.501 12.348 18.5002 11.9502 18.5002 11.5H16.5002ZM14.8335 15.1667C15.2837 15.1667 15.6814 15.1674 16.0095 15.1406C16.3492 15.1128 16.7012 15.0506 17.0438 14.876L16.1358 13.094C16.122 13.101 16.0624 13.1296 15.8465 13.1473C15.6189 13.1659 15.3167 13.1667 14.8335 13.1667V15.1667ZM16.4275 12.8026C16.3638 12.9276 16.2617 13.0298 16.1358 13.094L17.0438 14.876C17.5451 14.6206 17.9536 14.2128 18.2095 13.7106L16.4275 12.8026ZM14.8335 3.5C15.3167 3.5 15.6189 3.50078 15.8465 3.51938C16.0625 3.53703 16.122 3.56561 16.1358 3.57266L17.0438 1.79065C16.7011 1.61605 16.3492 1.5538 16.0095 1.52603C15.6814 1.49922 15.2837 1.5 14.8335 1.5V3.5ZM18.5002 5.16669C18.5002 4.71648 18.501 4.31868 18.4741 3.99059C18.4464 3.65083 18.3842 3.29877 18.2095 2.95604L16.4275 3.86402C16.4345 3.87782 16.4631 3.93737 16.4808 4.15345C16.4994 4.38121 16.5002 4.68347 16.5002 5.16669L18.5002 5.16669ZM16.1358 3.57266C16.2617 3.63679 16.3638 3.73899 16.4275 3.86402L18.2095 2.95604C17.9537 2.45387 17.5452 2.0461 17.0438 1.79065L16.1358 3.57266ZM6.83333 5.16668C6.83333 4.68347 6.83411 4.3812 6.85272 4.15345C6.87037 3.93737 6.89897 3.87782 6.906 3.86402L5.12398 2.95604C4.94935 3.29877 4.88712 3.65082 4.85936 3.99059C4.83256 4.31867 4.83333 4.71647 4.83333 5.16668H6.83333ZM8.50016 1.5C8.04994 1.5 7.65208 1.49922 7.32392 1.52603C6.98415 1.55378 6.63196 1.61599 6.28917 1.79065L7.19715 3.57266C7.21089 3.56567 7.27048 3.53705 7.48673 3.51939C7.71459 3.50078 8.01696 3.5 8.50016 3.5V1.5ZM6.906 3.86402C6.97004 3.73832 7.07197 3.63645 7.19715 3.57266L6.28917 1.79065C5.78715 2.04644 5.37951 2.45454 5.12398 2.95604L6.906 3.86402ZM4.83333 11.5C4.83333 11.9502 4.83256 12.348 4.85936 12.6761C4.88712 13.0159 4.94936 13.3679 5.12398 13.7106L6.906 12.8026C6.89897 12.7889 6.87037 12.7293 6.85272 12.5132C6.83411 12.2855 6.83333 11.9832 6.83333 11.5H4.83333ZM8.50016 13.1667C8.01698 13.1667 7.7146 13.1659 7.48675 13.1473C7.27051 13.1296 7.2109 13.101 7.19715 13.094L6.28917 14.876C6.63194 15.0506 6.98412 15.1129 7.3239 15.1406C7.65206 15.1674 8.04993 15.1667 8.50016 15.1667V13.1667ZM5.12398 13.7106C5.37953 14.2122 5.78719 14.6202 6.28917 14.876L7.19715 13.094C7.07193 13.0302 6.97002 12.9283 6.906 12.8026L5.12398 13.7106ZM16.5002 5.16669V11.5H18.5002V5.16669H16.5002ZM12.6667 10.8333V5.83333H10.6667V10.8333H12.6667ZM9.16667 9.33333L14.1667 9.33333V7.33333L9.16667 7.33333V9.33333Z" fill="#8C8D92"/>
</svg>

<svg width="20" height="20" fill="none" xmlns="http://www.w3.org/2000/svg"><path d="M3.5 7.5a1 1 0 0 0-2 0h2Zm9 11a1 1 0 1 0 0-2v2Zm-9.91-1.455-.89.454.89-.454Zm.365.364.454-.89-.454.89Zm11.879-3.242v-1 1Zm-6.334 0v1-1Zm9-2.667h1-1Zm-.181 1.757.89.454-.89-.454Zm-.73.728.455.891-.454-.891Zm0-11.303.455-.891-.454.89Zm.911 2.485h-1 1Zm-.18-1.757.89-.454-.89.454Zm-11.304 0-.891-.454.891.454Zm.728-.728.454.89-.454-.89Zm-.728 10.575.891-.454-.891.454Zm.728.728.454-.891-.454.891Zm3.924-3.152a1 1 0 1 0 2 0h-2Zm2-5a1 1 0 1 0-2 0h2Zm-3.5 1.5a1 1 0 1 0 0 2v-2Zm5 2a1 1 0 1 0 0-2v2ZM1.5 7.5v8.667h2V7.5h-2Zm2.333 11H12.5v-2H3.833v2ZM1.5 16.167c0 .216 0 .44.015.628.016.201.056.45.185.704l1.782-.908c.038.075.032.119.026.042a2.744 2.744 0 0 1-.007-.173 19.74 19.74 0 0 1-.001-.293h-2Zm2.333.333-.293-.001a2.775 2.775 0 0 1-.173-.007c-.077-.006-.033-.012.042.026L2.5 18.3c.254.13.503.169.704.185.189.016.412.015.628.015v-2Zm-2.133.999c.176.345.456.625.8.801l.909-1.782a.167.167 0 0 1 .073.073l-1.782.908ZM6.833 11.5V5.167h-2V11.5h2Zm1.667-8h6.334v-2H8.5v2Zm6.334 9.667H8.5v2h6.334v-2ZM16.5 11.5c0 .483 0 .786-.02 1.013-.017.216-.046.276-.053.29l1.782.908c.175-.343.237-.695.265-1.035.027-.328.026-.726.026-1.176h-2Zm-1.666 3.667c.45 0 .847 0 1.175-.026.34-.028.692-.09 1.035-.265l-.908-1.782c-.014.007-.074.036-.29.053-.227.019-.53.02-1.012.02v2Zm1.593-2.364a.668.668 0 0 1-.291.291l.908 1.782a2.66 2.66 0 0 0 1.165-1.165l-1.782-.908ZM14.834 3.5c.483 0 .785 0 1.013.02.216.017.275.046.289.053l.908-1.782c-.343-.175-.695-.237-1.035-.265-.328-.027-.725-.026-1.175-.026v2ZM18.5 5.167c0-.45.001-.848-.026-1.176-.028-.34-.09-.692-.265-1.035l-1.782.908c.008.014.036.073.054.29.018.227.02.53.02 1.013h2Zm-2.364-1.594a.667.667 0 0 1 .291.291l1.782-.908a2.667 2.667 0 0 0-1.165-1.165l-.908 1.782ZM6.833 5.167c0-.484.001-.786.02-1.014.017-.216.046-.275.053-.289l-1.782-.908c-.175.343-.237.695-.265 1.035-.026.328-.026.725-.026 1.176h2ZM8.5 1.5c-.45 0-.848 0-1.176.026-.34.028-.692.09-1.035.265l.908 1.782c.014-.007.073-.036.29-.054.228-.018.53-.019 1.013-.019v-2ZM6.906 3.864a.666.666 0 0 1 .291-.291L6.29 1.79a2.66 2.66 0 0 0-1.165 1.165l1.782.908ZM4.833 11.5c0 .45 0 .848.026 1.176.028.34.09.692.265 1.035l1.782-.908c-.007-.014-.036-.074-.053-.29-.019-.227-.02-.53-.02-1.013h-2ZM8.5 13.167c-.483 0-.785-.001-1.013-.02-.216-.017-.276-.046-.29-.053l-.908 1.782c.343.175.695.237 1.035.265.328.026.726.026 1.176.026v-2Zm-3.376.544c.256.501.663.91 1.165 1.165l.908-1.782a.666.666 0 0 1-.291-.291l-1.782.908ZM16.5 5.167V11.5h2V5.167h-2Zm-3.833 5.666v-5h-2v5h2Zm-3.5-1.5h5v-2h-5v2Z" fill="#8C8D92"/></svg>
